!!!COM: Palestrina, Giovanni Perluigi da
!!!OPR: Sanctorum meritis
!!!OTL: Agnus II
**kern	**kern	**kern	**kern	**kern
*Ibass	*Itenor	*Itenor	*Icalto	*Icant
!Bassus	!Tenor 2	!Tenor 1	!Altus	!Cantus
*clefF4	*clefGv2	*clefGv2	*clefG2	*clefG2
*k[]	*k[]	*k[]	*k[]	*k[]
*E:phr	*E:phr	*E:phr	*E:phr	*E:phr
*M4/2	*M4/2	*M4/2	*M4/2	*M4/2
=1	=1	=1	=1	=1
0r	1D	0r	0r	0r
.	1E	.	.	.
=2	=2	=2	=2	=2
0r	1F	0r	1A	0r
.	1G	.	1B	.
=3	=3	=3	=3	=3
1AA	1A	1r	1c	0r
1BB	[1G	1D	1d	.
=4	=4	=4	=4	=4
1C	2G]	1E	2c	0r
.	2c	.	2.e	.
1D	2B-	1F	.	.
.	.	.	4d	.
.	[2A	.	[2d	.
=5	=5	=5	=5	=5
1E	4A]	1G	2d]	0r
.	4G	.	.	.
.	1G	.	2c	.
1D	.	1A	2.d	.
.	2F#	.	.	.
.	.	.	4c	.
=6	=6	=6	=6	=6
0r	2G	1G	4B	1d
.	.	.	4G	.
.	2B	.	1d	.
.	1A	2r	.	1e
.	.	[2A	2c#	.
=7	=7	=7	=7	=7
1D	0r	2A]	1d	1f
.	.	1B	.	.
1E	.	.	1r	1g
.	.	[2c	.	.
=8	=8	=8	=8	=8
1F	0r	2c]	1A	1a
.	.	1d	.	.
1G	.	.	1B	1g
.	.	[2e	.	.
=9	=9	=9	=9	=9
1A	0r	4e]	1c	1e
.	.	4d	.	.
.	.	1c	.	.
1G	.	.	1d	2r
.	.	2B	.	2g
=10	=10	=10	=10	=10
0C	2r	1c	2e	2g
.	2c	.	2e	2g
.	2c	1r	2e	2a
.	2c	.	2e	[2cc
=11	=11	=11	=11	=11
0r	1d	0r	1f	2cc]
.	.	.	.	2.b
.	2c	.	2e	.
.	.	.	.	4a
.	2c	.	2e	[2a
=12	=12	=12	=12	=12
1r	1B	0r	1d	2a]
.	.	.	.	2g#
2r	[1A	.	2e	[1a
2F	.	.	2c	.
=13	=13	=13	=13	=13
2F	1A]	0r	2d	1a]
2F	.	.	2.f	.
1G	1B	.	.	1r
.	.	.	8e	.
.	.	.	8d	.
.	.	.	2e	.
=14	=14	=14	=14	=14
2F	2c	2r	4A	0r
.	.	.	4B	.
2F	2F	2c	4c	.
.	.	.	4d	.
1E	1G	2c	4e	.
.	.	.	4f	.
.	.	2c	[2g	.
=15	=15	=15	=15	=15
1D	1A	1d	4g]	1r
.	.	.	4f	.
.	.	.	2f	.
1r	1r	2c	2e	1g
.	.	2c	2e	.
=16	=16	=16	=16	=16
0r	2r	1B	1d	2g
.	2.d	.	.	2g
.	.	2.A	[1e	1a
.	4c	.	.	.
.	4c	.	.	.
.	8B	8G	.	.
.	8A	8F	.	.
=17	=17	=17	=17	=17
0r	2B	2E	1e]	2g
.	2c	2C	.	2g
.	2.A	4D	1r	1f
.	.	4E	.	.
.	.	4F	.	.
.	4B	4G	.	.
=18	=18	=18	=18	=18
0r	1c	4A	2r	2.e
.	.	4B	.	.
.	.	1c	2g	.
.	.	.	.	8d
.	.	.	.	8c
.	1G	.	2g	1d
.	.	2B	2g	.
=19	=19	=19	=19	=19
1C	2G	1c	0e	2c
.	2G	.	.	2cc
2C	2A	1c	.	1cc
2C	[2c	.	.	.
=20	=20	=20	=20	=20
1D	2c]	0r	1f	2a
.	2.B	.	.	2b
2C	.	.	1e	1cc
.	4A	.	.	.
2C	[2A	.	.	.
=21	=21	=21	=21	=21
1BB	2A]	1r	2.d	1dd
.	2G#	.	.	.
.	.	.	4e	.
1AA	[1A	2r	2f	1cc
.	.	2c	4e	.
.	.	.	4d	.
=22	=22	=22	=22	=22
1A	2A]	2c	2e	2a
.	2e	2c	1a	1cc
2F	2A	1d	.	.
2G	2B	.	4g	[2b
.	.	.	4f	.
=23	=23	=23	=23	=23
1A	4c	2c	1e	2b]
.	4d	.	.	.
.	2.e	2c	.	1a
1E	.	1B	2r	.
.	4d	.	.	.
.	2B	.	[2e	2g#
=24	=24	=24	=24	=24
1r	1c#	0A	2e]	0a
.	.	.	2e	.
[1D	1d	.	[1f	.
=25	=25	=25	=25	=25
2D]	1r	1d	1f]	2r
2D	.	.	.	1a
[1F	2r	2A	1c	.
.	[2A	[2c	.	2a
=26	=26	=26	=26	=26
1F]	2A]	4c]	2r	0cc
.	.	4B	.	.
.	2A	2A	1f	.
1C	[1c	1G	.	.
.	.	.	4e	.
.	.	.	4d	.
=27	=27	=27	=27	=27
2r	1c]	4c	2.e	0g
.	.	4d	.	.
1c	.	4e	.	.
.	.	4c	4f	.
.	1G	1d	2g	.
2B	.	.	2G	.
=28	=28	=28	=28	=28
2.c	2.A	1c	0r	1e
4B	4B	.	.	.
4A	[1c	1r	.	[1a
4G	.	.	.	.
[2F	.	.	.	.
=29	=29	=29	=29	=29
2F]	1c]	1.A	0r	2a]
2E	.	.	.	2g
1D	1d	.	.	1f
.	.	2A	.	.
=30	=30	=30	=30	=30
0C	0G	0c	2r	2e
.	.	.	1e	2g
.	.	.	.	2c
.	.	.	2e	[2cc
=31	=31	=31	=31	=31
0r	2r	0G	1g	2cc]
.	1d	.	.	4b
.	.	.	.	4a
.	.	.	1d	1b
.	2B	.	.	.
=32	=32	=32	=32	=32
0r	2.e	1E	2.g	1b
.	4d	.	4f	.
.	4c	[1A	4e	2.cc
.	4B	.	4d	.
.	4A	.	4c	.
.	4B	.	4B	4dd
=33	=33	=33	=33	=33
0r	2c	2A]	2A	2cc
.	2.d	2G	2B	2.b
.	.	1F	2c	.
.	4c	.	.	4a
.	2A	.	2d	[2a
=34	=34	=34	=34	=34
1r	1B	1E	0e	2a]
.	.	.	.	2g#
2r	2.c	2A	.	1a
[2A	.	2A	.	.
.	4d	.	.	.
=35	=35	=35	=35	=35
2A]	1e	1c	1r	2r
2A	.	.	.	1e
[1c	1r	4A	2r	.
.	.	4B	.	.
.	.	4c	[2e	2e
.	.	4d	.	.
=36	=36	=36	=36	=36
1c]	0r	4e	2e]	2g
.	.	4d	.	.
.	.	2c	2e	2a
[1G	.	2d	1g	2b
.	.	2e	.	[2cc
=37	=37	=37	=37	=37
1G]	0r	1d	2g	2cc]
.	.	.	2.g	4b
.	.	.	.	4a
1E	.	2r	.	4b
.	.	.	4f	4a
.	.	[2e	4e	4g
.	.	.	4d	4f
=38	=38	=38	=38	=38
1.A	0r	4e]	4c	1e
.	.	4d	4B	.
.	.	4c	4A	.
.	.	4B	4B	.
.	.	2A	4c	2f
.	.	.	4d	.
2G	.	2B	[2e	2g
=39	=39	=39	=39	=39
0F	1.A	2c	2e]	0a
.	.	2A	4d	.
.	.	.	4c	.
.	.	1r	1d	.
.	2A	.	.	.
=40	=40	=40	=40	=40
1C	1c	2r	2e	2g
.	.	2e	1g	1cc
1r	1G	1d	.	.
.	.	.	2g	2b
=41	=41	=41	=41	=41
1C	1E	2.e	2g	[0cc
.	.	.	1e	.
.	.	4d	.	.
1AA	[1A	4c	.	.
.	.	4B	.	.
.	.	2A	[2c	.
=42	=42	=42	=42	=42
1C	2A]	1E	4c]	1cc]
.	.	.	4d	.
.	2G	.	1e	.
1D	1F	2r	.	1a
.	.	[2A	2d	.
=43	=43	=43	=43	=43
0AA	[0E	4A]	[0e	2.cc
.	.	4G	.	.
.	.	4A	.	.
.	.	4B	.	4b
.	.	1c	.	1a
=44	=44	=44	=44	=44
0E	0E]	0B	0e]	0g#
==	==	==	==	==
*-	*-	*-	*-	*-
!!!CDT: 1525/^1526/-1594/2/2
!!!OCY: Italia
!!!AGN: Mass (Paraphrase)
!!!AST: renaissance, vocal
!!!ASW: Hymn
!!!PWK: Masses, Book 7
!!!RNB: Cadence finals: A,C
!!!YOR: Le Opere Complete, v. 23, p. 30
!!!YOO: Rome, Italy: Fratelli Scalera
!!!END: 1992//
!!!EED: John Miller
!!!YEC: Copyright 2000, John Miller
!!!YEN: United States of America
!!!YEM: Rights to all derivative electronic formats reserved.
!!!YEM: Refer to licensing agreement for further details.
!!!YEM: This file must be accompanied by the licensing agreement.
!!!YEM: A copy of the licensing agreement may be found at http://www.music-cog.ohio-state.edu/HumdrumDatabases/Palestrina/license.txt
!!!EMD: converted to Humdrum by Bret Aarden
